X: 8061
T: Connie The Soldier
R: jig
M: 6/8
K: Dmajor
"A5"{D}EAA ~A2d|=cAG ~E2D|"D5" DFF DEE|DFF {A}GED|
"A5" EAA ~A2d|=cAG ~E2D|"G5" EFG {=c}AGE|"D5" {G}EDD D3:|
|:"D" fdd {g}edc|Add ~d2e|f2d "A" cAA|"G" {c}BGG "D"~A2g|
fdd {g}edc|Ad{e}d cAG|"A5" EFG {B}AGE|"D5" {F}EDD D3:|

